svg/fan_circled.svg

<svg width="24" height="24" viewBox="0 0 24 24" xmlns="http://www.w3.org/2000/svg">
<path fill-rule="evenodd" clip-rule="evenodd" d="M12 3.48154C7.29535 3.48154 3.48148 7.29541 3.48148 12.0001C3.48148 16.7047 7.29535 20.5186 12 20.5186C16.7046 20.5186 20.5185 16.7047 20.5185 12.0001C20.5185 7.29541 16.7046 3.48154 12 3.48154ZM2 12.0001C2 6.47721 6.47715 2.00006 12 2.00006C17.5228 2.00006 22 6.47721 22 12.0001C22 17.5229 17.5228 22.0001 12 22.0001C6.47715 22.0001 2 17.5229 2 12.0001Z"/>
<path d="M12 11.3C11.8616 11.3 11.7262 11.3411 11.6111 11.418C11.496 11.4949 11.4063 11.6042 11.3533 11.7321C11.3003 11.86 11.2864 12.0008 11.3134 12.1366C11.3405 12.2724 11.4071 12.3971 11.505 12.495C11.6029 12.5929 11.7277 12.6596 11.8634 12.6866C11.9992 12.7136 12.14 12.6997 12.2679 12.6467C12.3958 12.5937 12.5051 12.504 12.582 12.3889C12.6589 12.2738 12.7 12.1385 12.7 12C12.7 11.8144 12.6262 11.6363 12.495 11.505C12.3637 11.3738 12.1857 11.3 12 11.3ZM12.35 5.00002C15.5 5.00002 15.57 7.49902 13.911 8.32502C13.6028 8.50778 13.3403 8.75856 13.1438 9.05822C12.9473 9.35787 12.8218 9.69847 12.777 10.054C13.1117 10.1929 13.4073 10.4116 13.638 10.691C16.2 9.29102 19 9.84401 19 12.35C19 15.5 16.494 15.57 15.675 13.911C15.4869 13.6029 15.232 13.341 14.9291 13.1448C14.6262 12.9485 14.283 12.8228 13.925 12.777C13.7844 13.1108 13.566 13.406 13.288 13.638C14.688 16.221 14.128 19 11.622 19C8.5 19 8.423 16.494 10.082 15.668C10.3852 15.4828 10.644 15.2332 10.84 14.9368C11.036 14.6404 11.1644 14.3046 11.216 13.953C10.8729 13.8188 10.5711 13.5967 10.341 13.309C7.758 14.695 5 14.149 5 11.65C5 8.50002 7.478 8.42302 8.304 10.082C8.48945 10.3888 8.74199 10.6496 9.04265 10.8448C9.34332 11.0399 9.68431 11.1645 10.04 11.209C10.1748 10.8721 10.3971 10.5772 10.684 10.355C9.291 7.80001 9.844 5.00002 12.336 5.00002H12.35Z"/>
</svg>

<svg width="24" height="24" viewBox="0 0 24 24" xmlns="http://www.w3.org/2000/svg"><path fill-rule="evenodd" clip-rule="evenodd" d="M12 3.482a8.519 8.519 0 1 0 0 17.037 8.519 8.519 0 0 0 0-17.037zM2 12C2 6.477 6.477 2 12 2s10 4.477 10 10-4.477 10-10 10S2 17.523 2 12z"/><path d="M12 11.3a.7.7 0 1 0 0 1.4.7.7 0 0 0 0-1.4zm.35-6.3c3.15 0 3.22 2.499 1.561 3.325a2.352 2.352 0 0 0-1.134 1.729c.335.139.63.358.861.637C16.2 9.291 19 9.844 19 12.35c0 3.15-2.506 3.22-3.325 1.561a2.408 2.408 0 0 0-1.75-1.134c-.14.334-.359.629-.637.861 1.4 2.583.84 5.362-1.666 5.362-3.122 0-3.199-2.506-1.54-3.332a2.423 2.423 0 0 0 1.134-1.715 2.1 2.1 0 0 1-.875-.644C7.758 14.695 5 14.149 5 11.65c0-3.15 2.478-3.227 3.304-1.568a2.373 2.373 0 0 0 1.736 1.127c.135-.337.357-.632.644-.854C9.291 7.8 9.844 5 12.336 5h.014z"/></svg>
